X: 161657
T: Pinkeen [The]
S: B.Breathnach:"Ceol Rince na hEireann" IV/51 (gan ainm)
Z: B.Black
L: 1/8
M: 12/8
Q: 360
R: jig
K: D
A|d3 AFA d2c B2A|d2c d2e fgf e2A|
d3 AFA d2c B2A|B2d c2e d3 d2 :|
A|d2e f2g a2b afd|g2e f2d ecA ABc|
d2e f2g a2b afd|g2f e2c d3 d3|
d2e f2g a2b afd|g2e f2d ecA ABc|
d2e f2g a2b afd|g2f e2d e2d c2A ||
